dist/svgs/crypto-icons/icons/swt.svg

<?xml version="1.0" encoding="UTF-8" standalone="yes"?>
<svg xmlns="http://www.w3.org/2000/svg" xmlns:xlink="http://www.w3.org/1999/xlink" width="509.3333333333333px" height="214.66666666666666px" viewBox="0 0 382 161" version="1.1">
  <g id="surface1">
    <path style=" stroke:none;fill-rule:evenodd;fill:rgb(0%,0%,0%);fill-opacity:1;" d="M 96.09375 36.96875 C 96.09375 40.945312 94.640625 44.324219 91.726562 47.105469 C 88.816406 49.890625 85.375 51.28125 81.402344 51.28125 C 77.433594 51.28125 73.992188 49.890625 71.078125 47.105469 C 68.167969 44.324219 66.710938 40.945312 66.710938 36.96875 C 66.710938 32.730469 68.167969 29.21875 71.078125 26.4375 C 73.992188 23.652344 77.433594 22.261719 81.402344 22.261719 C 85.375 22.261719 88.816406 23.652344 91.726562 26.4375 C 94.640625 29.21875 96.09375 32.730469 96.09375 36.96875 Z M 381.207031 79.507812 L 381.207031 74.140625 L 380.410156 71.15625 C 380.148438 67.449219 379.550781 63.738281 378.625 60.027344 C 377.695312 56.300781 376.699219 52.589844 375.648438 48.894531 C 374.851562 47.042969 374.058594 45.253906 373.265625 43.53125 C 372.46875 41.808594 371.675781 40.152344 370.882812 38.558594 C 370.085938 36.96875 369.160156 35.378906 368.101562 33.789062 C 367.042969 32.199219 365.851562 30.609375 364.527344 29.019531 C 362.410156 25.839844 359.960938 22.992188 357.183594 20.472656 C 354.402344 17.957031 351.425781 15.503906 348.246094 13.117188 C 341.894531 9.144531 335.011719 6.03125 327.597656 3.777344 C 320.1875 1.523438 312.90625 0.265625 305.757812 0 C 301.789062 0 298.015625 0.0664062 294.441406 0.199219 C 290.867188 0.332031 287.226562 0.664062 283.523438 1.191406 C 279.816406 1.722656 276.242188 2.386719 272.800781 3.179688 C 269.359375 3.976562 265.917969 5.035156 262.476562 6.359375 C 259.035156 7.15625 255.660156 8.28125 252.351562 9.738281 C 249.007812 11.210938 245.632812 12.601562 242.222656 13.914062 L 232.695312 18.683594 L 223.164062 24.25 C 217.125 27.925781 211.230469 31.839844 205.492188 35.976562 C 199.800781 40.085938 194.441406 44.390625 189.410156 48.894531 C 186.765625 51.015625 184.183594 53.335938 181.667969 55.851562 C 179.152344 58.371094 176.574219 60.691406 173.925781 62.808594 C 171.542969 65.460938 169.226562 68.042969 166.976562 70.5625 C 164.664062 73.148438 162.347656 75.734375 160.027344 78.3125 C 158.703125 79.375 157.578125 80.566406 156.652344 81.890625 C 155.703125 83.246094 154.707031 84.574219 153.671875 85.867188 L 153.277344 86.265625 C 150.363281 84.144531 147.652344 82.023438 145.136719 79.902344 C 142.660156 77.816406 140.210938 75.695312 137.789062 73.542969 C 133.023438 69.566406 128.921875 65.921875 125.480469 62.609375 C 122.039062 59.296875 119.125 56.449219 116.746094 54.0625 C 114.363281 51.679688 112.507812 49.890625 111.183594 48.699219 L 109.199219 46.910156 L 108.007812 48.101562 L 109.597656 50.089844 L 114.363281 56.449219 C 115.421875 57.773438 116.613281 59.230469 117.9375 60.820312 C 119.257812 62.414062 120.582031 64.136719 121.90625 65.988281 C 123.496094 67.84375 125.28125 69.832031 127.265625 71.953125 C 129.253906 74.074219 131.304688 76.324219 133.421875 78.710938 C 134.480469 80.035156 135.605469 81.230469 136.796875 82.289062 C 137.988281 83.347656 139.246094 84.542969 140.570312 85.867188 C 141.628906 87.191406 142.820312 88.449219 144.144531 89.644531 C 145.46875 90.835938 146.789062 92.09375 148.113281 93.417969 L 147.71875 93.816406 L 147.320312 94.214844 C 145.46875 96.601562 143.480469 98.917969 141.363281 101.171875 C 139.246094 103.425781 136.996094 105.742188 134.613281 108.128906 C 132.492188 110.25 130.308594 112.304688 128.0625 114.289062 C 125.8125 116.277344 123.363281 118.199219 120.714844 120.054688 C 118.597656 121.910156 116.28125 123.632812 113.765625 125.222656 C 111.25 126.8125 108.671875 128.269531 106.023438 129.59375 C 100.992188 132.511719 95.964844 134.761719 90.933594 136.351562 C 85.910156 137.941406 80.707031 138.878906 75.445312 139.136719 L 60.359375 139.136719 C 57.710938 138.871094 55.261719 138.472656 53.011719 137.941406 C 50.761719 137.414062 48.3125 136.75 45.664062 135.957031 C 40.898438 134.367188 36.53125 132.445312 32.5625 130.191406 C 28.589844 127.9375 25.148438 125.222656 22.238281 122.042969 C 19.058594 119.125 16.546875 115.878906 14.691406 112.300781 C 12.839844 108.726562 11.515625 104.949219 10.722656 100.972656 C 10.722656 100.441406 10.65625 99.980469 10.523438 99.582031 C 10.390625 99.183594 10.324219 98.851562 10.324219 98.585938 L 10.324219 91.035156 C 10.324219 88.914062 10.457031 86.925781 10.722656 85.070312 C 10.984375 83.214844 11.25 81.492188 11.515625 79.902344 C 12.042969 75.929688 12.972656 72.417969 14.296875 69.367188 C 15.617188 66.320312 17.207031 63.738281 19.058594 61.617188 C 20.121094 60.292969 21.113281 59.164062 22.039062 58.238281 C 22.96875 57.308594 23.832031 56.3125 24.621094 55.257812 C 25.679688 54.195312 26.671875 53.335938 27.597656 52.671875 C 28.542969 52 29.539062 51.402344 30.574219 50.882812 C 31.371094 50.089844 32.957031 49.09375 35.339844 47.902344 C 37.722656 46.710938 39.445312 45.714844 40.503906 44.921875 C 42.089844 44.390625 43.414062 43.859375 44.472656 43.332031 C 45.53125 42.800781 46.589844 42.535156 47.652344 42.535156 C 48.710938 42.269531 49.371094 42.070312 49.636719 41.941406 L 50.035156 41.742188 L 49.636719 40.546875 L 49.039062 40.746094 L 46.855469 41.34375 C 46.0625 41.609375 45.003906 41.808594 43.679688 41.941406 C 42.355469 42.070312 40.898438 42.535156 39.3125 43.332031 C 37.722656 42.800781 35.871094 42.933594 33.753906 43.726562 C 31.636719 44.523438 29.515625 45.449219 27.398438 46.511719 C 25.015625 47.570312 22.632812 48.960938 20.25 50.683594 C 17.867188 52.40625 15.617188 54.59375 13.5 57.246094 C 11.117188 59.628906 9 62.414062 7.148438 65.59375 C 5.292969 68.773438 3.707031 72.351562 2.382812 76.324219 C 1.851562 78.179688 1.390625 80.167969 0.992188 82.289062 C 0.59375 84.410156 0.265625 86.398438 0 88.25 L 0 100.375 L 0.792969 102.164062 C 1.324219 106.9375 2.714844 111.773438 4.964844 116.675781 C 7.214844 121.578125 10.191406 125.886719 13.898438 129.59375 C 17.867188 133.570312 22.171875 137.082031 26.804688 140.128906 C 31.4375 143.175781 36.53125 145.628906 42.089844 147.484375 C 44.738281 148.542969 47.453125 149.472656 50.230469 150.265625 C 53.011719 151.0625 55.988281 151.589844 59.167969 151.855469 C 59.695312 151.855469 60.425781 151.988281 61.351562 152.253906 C 62.277344 152.519531 63.269531 152.652344 64.328125 152.652344 L 77.433594 152.652344 C 80.609375 152.386719 83.785156 151.988281 86.960938 151.460938 C 90.140625 150.929688 93.316406 150 96.492188 148.675781 C 99.667969 147.882812 102.714844 146.820312 105.625 145.496094 C 108.539062 144.171875 111.449219 142.449219 114.363281 140.328125 C 117.273438 138.738281 119.988281 137.015625 122.503906 135.160156 C 125.121094 133.222656 127.703125 131.234375 130.246094 129.199219 C 132.894531 126.8125 135.339844 124.492188 137.589844 122.242188 C 139.839844 119.988281 142.027344 117.535156 144.144531 114.886719 C 146.527344 112.5 148.644531 109.984375 150.496094 107.332031 C 152.457031 104.53125 154.441406 101.75 156.453125 98.984375 C 156.71875 99.515625 156.984375 99.914062 157.246094 100.179688 L 158.042969 100.972656 C 159.628906 102.296875 161.21875 103.6875 162.808594 105.148438 C 164.394531 106.605469 165.984375 107.996094 167.570312 109.320312 C 171.277344 112.234375 174.917969 115.085938 178.492188 117.867188 C 182.066406 120.652344 185.835938 123.5 189.808594 126.414062 C 194.105469 129.371094 198.476562 132.21875 202.914062 134.960938 C 207.414062 137.746094 212.046875 140.195312 216.8125 142.316406 C 219.191406 143.640625 221.640625 144.832031 224.15625 145.894531 C 226.671875 146.953125 229.253906 148.148438 231.898438 149.472656 C 234.546875 150.265625 237.261719 151.195312 240.039062 152.253906 C 242.820312 153.316406 245.667969 154.242188 248.578125 155.035156 C 254.136719 156.628906 260.027344 157.886719 266.25 158.8125 C 272.511719 159.746094 278.800781 160.476562 285.109375 161 L 295.433594 161 C 297.023438 161 298.742188 160.933594 300.597656 160.800781 C 302.449219 160.667969 304.171875 160.46875 305.757812 160.203125 C 309.160156 159.945312 312.539062 159.480469 315.882812 158.8125 C 319.195312 158.152344 322.570312 157.289062 326.011719 156.230469 C 332.628906 154.109375 339.046875 151.128906 345.269531 147.285156 C 351.464844 143.464844 357.136719 138.855469 362.144531 133.570312 C 367.175781 128.003906 371.277344 121.777344 374.457031 114.886719 C 377.632812 107.996094 379.882812 100.839844 381.207031 93.417969 C 381.207031 92.359375 381.339844 91.367188 381.601562 90.4375 C 381.867188 89.511719 382 88.648438 382 87.855469 L 382 81.890625 L 381.207031 79.507812 L 381.207031 79.703125 Z M 366.511719 81.890625 L 366.511719 84.476562 L 366.117188 86.265625 C 366.117188 87.058594 365.984375 87.855469 365.71875 88.648438 C 365.453125 89.445312 365.320312 90.238281 365.320312 91.035156 C 364.261719 96.863281 362.410156 102.5625 359.761719 108.128906 C 357.117188 113.695312 353.675781 118.597656 349.4375 122.835938 C 347.585938 124.957031 345.402344 126.878906 342.886719 128.601562 C 340.371094 130.324219 337.921875 131.980469 335.539062 133.570312 C 332.894531 135.160156 330.3125 136.484375 327.796875 137.546875 C 325.28125 138.605469 322.570312 139.535156 319.65625 140.328125 C 316.746094 141.386719 313.832031 142.183594 310.921875 142.714844 C 308.007812 143.242188 305.230469 143.507812 302.582031 143.507812 C 301.257812 143.507812 299.867188 143.640625 298.414062 143.90625 C 296.957031 144.171875 295.566406 144.304688 294.242188 144.304688 L 284.714844 144.304688 C 272.800781 144.039062 261.550781 142.582031 250.960938 139.929688 C 240.371094 137.28125 230.445312 133.835938 221.179688 129.59375 C 211.648438 125.621094 202.847656 121.113281 194.773438 116.078125 C 186.699219 111.042969 179.21875 106.007812 172.335938 100.972656 C 169.953125 99.382812 167.769531 97.792969 165.785156 96.203125 C 163.800781 94.613281 161.746094 93.023438 159.628906 91.433594 L 159.628906 91.234375 L 160.027344 91.035156 C 161.09375 89.699219 162.089844 88.304688 163.003906 86.859375 C 163.921875 85.417969 164.917969 84.023438 165.984375 82.6875 C 173.394531 72.085938 182.066406 62.082031 191.992188 52.671875 C 201.921875 43.265625 212.839844 34.984375 224.753906 27.828125 C 227.664062 25.972656 230.707031 24.25 233.886719 22.660156 C 237.0625 21.070312 240.238281 19.613281 243.414062 18.285156 C 246.59375 16.960938 249.769531 15.703125 252.945312 14.511719 C 256.121094 13.316406 259.429688 12.324219 262.875 11.527344 C 266.578125 10.46875 270.019531 9.605469 273.199219 8.945312 C 276.375 8.28125 279.816406 7.816406 283.523438 7.554688 C 286.964844 7.289062 290.40625 7.15625 293.847656 7.15625 C 297.289062 7.15625 300.597656 7.289062 303.773438 7.554688 C 310.390625 8.082031 316.878906 9.605469 323.230469 12.125 C 329.585938 14.640625 335.410156 17.757812 340.703125 21.464844 C 345.734375 25.441406 350.101562 30.144531 353.808594 35.578125 C 357.511719 41.011719 360.292969 46.777344 362.144531 52.871094 C 363.203125 56.050781 364 59.101562 364.527344 62.015625 C 365.058594 64.929688 365.320312 67.976562 365.320312 71.15625 L 365.320312 78.3125 Z M 366.511719 81.890625 "/>
  </g>
</svg>

<svg xmlns="http://www.w3.org/2000/svg" viewBox="0 0 382 161"><path fill-rule="evenodd" d="M96.094 36.969c0 3.976-1.453 7.355-4.367 10.136-2.91 2.786-6.352 4.176-10.325 4.176-3.968 0-7.41-1.39-10.324-4.176-2.91-2.78-4.367-6.16-4.367-10.136 0-4.239 1.457-7.75 4.367-10.532 2.914-2.785 6.356-4.175 10.324-4.175 3.973 0 7.414 1.39 10.325 4.175 2.914 2.782 4.367 6.293 4.367 10.532zm285.113 42.539V74.14l-.797-2.985a64.764 64.764 0 00-1.785-11.129 353.998 353.998 0 00-2.977-11.132 235.73 235.73 0 00-2.382-5.364 194.185 194.185 0 00-2.383-4.972 44.972 44.972 0 00-2.781-4.77 55.724 55.724 0 00-3.575-4.77 45.64 45.64 0 00-7.343-8.546 126.655 126.655 0 00-8.938-7.356c-6.351-3.972-13.234-7.086-20.648-9.34-7.41-2.254-14.692-3.511-21.84-3.777-3.969 0-7.742.066-11.317.2a105.14 105.14 0 00-10.918.991 129.682 129.682 0 00-10.722 1.989 77.27 77.27 0 00-10.324 3.18 56.955 56.955 0 00-10.125 3.378 230.804 230.804 0 01-10.13 4.176l-9.527 4.77-9.53 5.566a272.527 272.527 0 00-17.673 11.727 196.835 196.835 0 00-16.082 12.918 95.19 95.19 0 00-7.742 6.957 93.126 93.126 0 01-7.742 6.957c-2.383 2.652-4.7 5.234-6.95 7.754a3273.893 3273.893 0 01-6.949 7.75 17.265 17.265 0 00-3.375 3.578 77.498 77.498 0 01-2.98 3.976l-.395.399a145 145 0 01-8.14-6.364 366.026 366.026 0 01-7.348-6.359c-4.766-3.977-8.867-7.621-12.309-10.934a606.873 606.873 0 01-8.734-8.547c-2.383-2.382-4.238-4.171-5.562-5.363l-1.985-1.789-1.191 1.192 1.59 1.988 4.765 6.36a282.787 282.787 0 003.575 4.37 91.922 91.922 0 013.968 5.168 184.545 184.545 0 005.36 5.965 333.083 333.083 0 016.156 6.758 28.963 28.963 0 003.375 3.578 88.803 88.803 0 013.773 3.578 32.066 32.066 0 003.575 3.778 103.862 103.862 0 013.968 3.773l-.394.398-.399.399a97.092 97.092 0 01-5.957 6.957 318.956 318.956 0 01-6.75 6.957 145.546 145.546 0 01-6.55 6.16 83.007 83.007 0 01-7.348 5.766 55.517 55.517 0 01-6.95 5.168 88.893 88.893 0 01-7.742 4.37c-5.03 2.919-10.058 5.169-15.09 6.759a61.257 61.257 0 01-15.488 2.785H60.36c-2.648-.266-5.097-.664-7.347-1.196-2.25-.527-4.7-1.191-7.348-1.984-4.766-1.59-9.133-3.512-13.102-5.766-3.972-2.254-7.414-4.968-10.324-8.148-3.18-2.918-5.691-6.164-7.547-9.742a42.635 42.635 0 01-3.968-11.328c0-.532-.067-.993-.2-1.391-.132-.398-.199-.73-.199-.996v-7.55c0-2.122.133-4.11.399-5.966.261-1.855.527-3.578.793-5.168.527-3.972 1.457-7.484 2.78-10.535 1.321-3.047 2.911-5.629 4.763-7.75 1.062-1.324 2.054-2.453 2.98-3.379a27.54 27.54 0 002.582-2.98c1.059-1.063 2.05-1.922 2.977-2.586a22.765 22.765 0 012.976-1.79c.797-.792 2.383-1.788 4.766-2.98 2.383-1.191 4.105-2.187 5.164-2.98 1.586-.531 2.91-1.063 3.969-1.59 1.058-.531 2.117-.797 3.18-.797 1.058-.265 1.718-.465 1.984-.594l.398-.199-.398-1.195-.598.2-2.184.597c-.792.265-1.851.465-3.175.597-1.325.13-2.782.594-4.367 1.391-1.59-.531-3.442-.398-5.56.395a66.007 66.007 0 00-6.355 2.785c-2.382 1.058-4.765 2.449-7.148 4.172-2.383 1.722-4.633 3.91-6.75 6.562-2.383 2.383-4.5 5.168-6.352 8.348-1.855 3.18-3.441 6.758-4.765 10.73a65.917 65.917 0 00-1.39 5.965A134.547 134.547 0 000 88.25v12.125l.793 1.79c.531 4.772 1.922 9.608 4.172 14.51 2.25 4.903 5.226 9.212 8.933 12.919a81.362 81.362 0 0012.907 10.535c4.633 3.047 9.726 5.5 15.285 7.355a84.236 84.236 0 008.14 2.782c2.782.797 5.758 1.324 8.938 1.59.527 0 1.258.132 2.184.398a10.73 10.73 0 002.976.398h13.106c3.175-.265 6.351-.664 9.527-1.191 3.18-.531 6.355-1.461 9.531-2.785a53.03 53.03 0 009.133-3.18c2.914-1.324 5.824-3.047 8.738-5.168a71.198 71.198 0 008.14-5.168c2.618-1.937 5.2-3.926 7.743-5.96a195.053 195.053 0 007.344-6.958 89.516 89.516 0 006.555-7.355 56.324 56.324 0 006.351-7.555 567.66 567.66 0 015.957-8.348c.266.532.531.93.793 1.196l.797.793a133.491 133.491 0 014.766 4.175 133.738 133.738 0 004.761 4.172c3.707 2.914 7.348 5.766 10.922 8.547a488.175 488.175 0 0011.317 8.547 317.84 317.84 0 0013.105 8.547c4.5 2.785 9.133 5.234 13.899 7.355a75.42 75.42 0 007.343 3.579 129.625 129.625 0 017.742 3.578c2.649.793 5.364 1.722 8.141 2.78a90.816 90.816 0 008.54 2.782c5.558 1.594 11.448 2.852 17.671 3.778A291.13 291.13 0 00285.11 161h10.324c1.59 0 3.308-.066 5.164-.2a55.315 55.315 0 005.16-.597 84.112 84.112 0 0010.125-1.39c3.312-.66 6.687-1.524 10.129-2.583 6.617-2.12 13.035-5.101 19.258-8.945a83.94 83.94 0 0016.875-13.715c5.03-5.566 9.132-11.793 12.312-18.683a88.031 88.031 0 006.75-21.469c0-1.059.133-2.05.395-2.98.265-.926.398-1.79.398-2.583v-5.964l-.793-2.383v.195zm-14.695 2.383v2.586l-.395 1.789c0 .793-.133 1.59-.398 2.382a7.497 7.497 0 00-.399 2.387c-1.058 5.828-2.91 11.528-5.558 17.094-2.645 5.566-6.086 10.469-10.325 14.707-1.851 2.121-4.035 4.043-6.55 5.766a736.055 736.055 0 01-7.348 4.968c-2.644 1.59-5.226 2.914-7.742 3.977a64.916 64.916 0 01-8.14 2.781 53.811 53.811 0 01-8.735 2.387c-2.914.527-5.692.793-8.34.793a23.26 23.26 0 00-4.168.398 23.28 23.28 0 01-4.172.399h-9.527c-11.914-.266-23.164-1.723-33.754-4.375-10.59-2.649-20.516-6.094-29.781-10.336-9.532-3.973-18.332-8.48-26.407-13.516-8.074-5.035-15.554-10.07-22.437-15.105a93.288 93.288 0 01-6.55-4.77c-1.985-1.59-4.04-3.18-6.157-4.77v-.199l.398-.199a46.775 46.775 0 002.977-4.176 48.156 48.156 0 012.98-4.171c7.41-10.602 16.082-20.606 26.008-30.016 9.93-9.406 20.848-17.688 32.762-24.844a100.924 100.924 0 019.133-5.168 154.075 154.075 0 019.527-4.375 287.018 287.018 0 019.531-3.773 78.123 78.123 0 019.93-2.985c3.703-1.058 7.145-1.922 10.324-2.582 3.176-.664 6.617-1.129 10.324-1.39a133.94 133.94 0 0110.325-.399c3.441 0 6.75.133 9.925.399 6.618.527 13.106 2.05 19.457 4.57 6.356 2.516 12.18 5.633 17.473 9.34 5.031 3.976 9.399 8.68 13.106 14.113 3.703 5.434 6.484 11.2 8.336 17.293 1.058 3.18 1.855 6.23 2.382 9.145.532 2.914.793 5.96.793 9.14v7.156zm0 0"/></svg>
